components/Common/Svg/svgs/digit5.svg

<svg width="90" height="90" viewBox="0 0 90 90" fill="none" xmlns="http://www.w3.org/2000/svg">
<circle cx="45" cy="45" r="45" fill="#FFE603"/>
<path d="M53.4494 36.246H42.8414V40.938C43.2947 40.4393 43.9294 40.0313 44.7454 39.714C45.5614 39.3967 46.4454 39.238 47.3974 39.238C49.0974 39.238 50.5027 39.6233 51.6134 40.394C52.7467 41.1647 53.574 42.162 54.0954 43.386C54.6167 44.61 54.8774 45.936 54.8774 47.364C54.8774 50.016 54.1294 52.124 52.6334 53.688C51.1374 55.2293 49.0294 56 46.3094 56C44.496 56 42.9207 55.694 41.5834 55.082C40.246 54.4473 39.2147 53.5747 38.4894 52.464C37.764 51.3533 37.3674 50.0727 37.2994 48.622H42.9774C43.1134 49.3247 43.442 49.914 43.9634 50.39C44.4847 50.8433 45.1987 51.07 46.1054 51.07C47.1707 51.07 47.964 50.73 48.4854 50.05C49.0067 49.37 49.2674 48.4633 49.2674 47.33C49.2674 46.2193 48.9954 45.3693 48.4514 44.78C47.9074 44.1907 47.114 43.896 46.0714 43.896C45.3007 43.896 44.666 44.0887 44.1674 44.474C43.6687 44.8367 43.34 45.324 43.1814 45.936H37.5714V31.146H53.4494V36.246Z" fill="black"/>
</svg>

<svg width="90" height="90" viewBox="0 0 90 90" fill="none" xmlns="http://www.w3.org/2000/svg"><circle cx="45" cy="45" r="45" fill="#FFE603"/><path d="M53.45 36.246H42.84v4.692c.454-.499 1.088-.907 1.904-1.224a7.255 7.255 0 0 1 2.652-.476c1.7 0 3.106.385 4.216 1.156 1.134.77 1.961 1.768 2.482 2.992.522 1.224.782 2.55.782 3.978 0 2.652-.748 4.76-2.244 6.324C51.137 55.229 49.03 56 46.31 56c-1.813 0-3.388-.306-4.726-.918-1.337-.635-2.368-1.507-3.094-2.618-.725-1.11-1.122-2.391-1.19-3.842h5.678a3.14 3.14 0 0 0 .986 1.768c.522.453 1.236.68 2.142.68 1.066 0 1.859-.34 2.38-1.02.522-.68.782-1.587.782-2.72 0-1.11-.272-1.96-.816-2.55-.544-.59-1.337-.884-2.38-.884-.77 0-1.405.193-1.904.578-.498.363-.827.85-.986 1.462h-5.61v-14.79H53.45v5.1Z" fill="#000"/></svg>
